tools/download-figma-icons/icons/solid/upload.svg

<svg width="24" height="24" viewBox="0 0 24 24" fill="none" xmlns="http://www.w3.org/2000/svg">
<path fill-rule="evenodd" clip-rule="evenodd" d="M15.3001 13.0796C15.1501 13.2296 14.9626 13.2971 14.7676 13.2971C14.5718 13.2971 14.3844 13.2296 14.2344 13.0796L12.7501 11.5953V16.792C12.7501 17.2045 12.4119 17.542 12.0001 17.542C11.5876 17.542 11.2501 17.2045 11.2501 16.792V11.5953L9.76515 13.0796C9.4719 13.3728 9.00016 13.3728 8.70016 13.0796C8.40766 12.7871 8.40766 12.3146 8.70016 12.0228L11.4676 9.25462C11.5344 9.18787 11.6176 9.12712 11.7151 9.09037C11.8051 9.05287 11.9026 9.03712 12.0001 9.03712C12.1044 9.03712 12.2026 9.05287 12.2919 9.09037C12.3819 9.12712 12.4651 9.18787 12.5326 9.25462L15.3001 12.0228C15.5926 12.3146 15.5926 12.7871 15.3001 13.0796ZM19.1618 10.6946C19.1776 10.4771 19.1918 10.2521 19.1918 10.0346C19.1918 6.15793 16.0343 3.00046 12.1576 3.00046C8.52016 3.00046 5.52019 5.77543 5.16694 9.32214C2.25697 9.67464 0.000244138 12.1579 0.000244138 15.1578C0.000244138 18.3978 2.64022 21.037 5.87943 21.037H18.8251C21.675 21.037 24 18.7128 24 15.8621C24 13.1179 21.8625 10.8679 19.1618 10.6946Z" fill="black"/>
</svg>

<svg xmlns="http://www.w3.org/2000/svg" width="24" height="24" fill="none" viewBox="0 0 24 24"><path fill="currentColor" fill-rule="evenodd" d="M15.3 13.08a.74.74 0 0 1-.532.217.74.74 0 0 1-.534-.217l-1.484-1.485v5.197c0 .412-.338.75-.75.75a.75.75 0 0 1-.75-.75v-5.197L9.765 13.08a.755.755 0 0 1-1.065 0 .746.746 0 0 1 0-1.057l2.768-2.768A.74.74 0 0 1 12 9.038q.156-.002.29.052c.09.037.174.098.242.165l2.767 2.768a.746.746 0 0 1 0 1.057m3.862-2.385c.016-.218.03-.443.03-.66C19.192 6.158 16.034 3 12.158 3a7.03 7.03 0 0 0-6.991 6.322A5.885 5.885 0 0 0 0 15.158c0 3.24 2.64 5.879 5.88 5.879h12.945A5.185 5.185 0 0 0 24 15.862a5.18 5.18 0 0 0-4.838-5.167" clip-rule="evenodd"/></svg>
